X:1
T:James Gibb editions
T:The Old Superb - Stanford
T:#
%%score 1 { ( 2 5 ) | ( 3 4 ) }
L:1/8
Q:1/4=120
M:4/4
K:Bb
V:1 bass nm="Voice"
V:2 treble nm="Piano"
V:5 treble 
V:3 bass 
V:4 bass 
V:1
"^allegro vivace""^Henry Newbolt\n(1862-1938)""^Charles Villiers Stanford\n(1852-1924)""^The Old Superb" z2 | %1
w: |
 z8 | z8 | z12 | z4 z2 z!mf! F, |[M:4/4] B,A,B,C B,A,G,F, | G,F,G,A, F,3 E, | D,3 D, D,2 E,2 | %8
w: |||The|wind was ris- ing east- er- ly, the|morn- ing sky was blue, The|Straits be- fore us|
 F,2 (G,F,) (E,D,) (C,D,) | B,,4 z2 D,2 | B,A,B,C B,A,G,F, | G,F,G,A, F,3 A, | C2 C,2 D,2 B,2 | %13
w: o- pen'd * wide * and *|free; We|look'd to- wards the Ad- mi- ral, where|high the Pe- ter flew, And|all our hearts were|
 A,3 F, (B,A,) (G,A,) | F,6 z F, | G,G,A,=B, CB,CG, | G,G,A,=B, C2 z A, | D2 C2 B,2 A,2 | %18
w: danc- ing like * the *|sea. The|French are gone to Mar- ti- nique with|four and twen- ty sail, The|"Old Su- perb" is|
 G,2 F,2 E,2 D,2 | C,4 z2 E,F, | G,G,A,=B, CB,CG, |"^cresc." A,A,=B,^C D2 (=C_B,) | E2 D2 C3 D | %23
w: old and foul and|slow; But the|French are gone to Mar- ti- nique, and|Nel- son's on the trail, And *|where he goes the|
 G,3 A, B,2 !>!C2 | !>!F,4 z4 | z4 z2!f! F,2 | B,,2 D,2 F,3 F, | G,A, B,4 (B,C) | D2 B,2 G,3 F, | %29
w: "Old Su- perb" must|go.|So|West- ward ho! for|Tri- ni- dad, and *|East\-~. ward ho! for|
 E,6 G,2 | F,A, C4- CF, | D2 B,2 G,3 =E, | F,4 z4 | z8 | B,3 C D3 C | B,2 F,4 F,2 | B,3 C D3 C | %37
w: Spain, And|"Ship a- hoy!" * a|hun- dred times a|day;||Round the world if|need be, and|round the world a-|
 B,6 CD | E2"^rall."[Q:1/4=117] D2[Q:1/4=114] C2[Q:1/4=111] B,2 | %39
w: gain With a|lame duck lag- ging,|
[Q:1/4=108] A,2[Q:1/4=105] G,2[Q:1/4=102] D,3[Q:1/4=100] C, |"^a tempo"[Q:1/4=120] B,,4 z4 | z8 | %42
w: lag- ging all the|way.||
 z8 | z8 | z4 z2 z!mf! F, | B,A,B,C B,-A,G,F, | G,F,G,A, F,3 E, | D,3 D, D,2 E,2 | %48
w: ||The|"Old Su- perb" was bar- na- cled and|green as grass be- low, Her|sticks were on- ly|
 F,2 (G,F,) (E,D,) (C,D,) | B,,4 z2 D,2 | B,A,B,C B,A,G,F, | G,F,G,A, F,3 A, | C2 C,2 D,2 B,2 | %53
w: fit for * stir\- * ring *|grog; The|pride of all her mid- ship- men was|si- lent long a- go, And|long a- go they|
 A,3 F, (B,A,) (G,A,) | F,6 z2 | G,G,A,=B, CB,CG, | G,G,A,=B, C2 z A, | D2 C2 B,2 A,2 | %58
w: ceased to heave * the *|log,|Four year out from home she was, and|ne'er a week in port, And|no- thing save the|
 G,2 F,2 E,2 D,2 | C,4 z2 z G, | G,G,A,"^cresc."=B, CB,CG, | A,A,=B,^C D2 =C_B, | E2 D2 C2 D2 | %63
w: guns a- board her|bright; But|Cap- tain Keats he knew the game, and|swore to share the sport, For he|ne- ver yet came|
 G,3 A, B,2 C2 | F,4 z4 | z4 z2!f! F,2 | B,,2 D,2 F,3 F, | G,A, B,4 (B,C) | D2 B,2 G,3 F, | %69
w: in too late to|fight.|So|West- ward ho! for|Tri- ni- dad, and *|East- ward ho! for|
 E,6 G,2 | F,A, C4- CF, | D2 B,2 G,3 =E, | F,4 z4 | z8 | B,3 C D3 C | B,2 F,4 F,2 | B,3 C D3 C | %77
w: Spain, And|"Ship a- hoy!" * a|hun- dred times a|day;||Round the world if|need be, and|round the world a-|
 B,6 CD | E2"^rall." D2[Q:1/4=118] C2[Q:1/4=114] B,2 | %79
w: gain With a|lame duck lag- ging,|
[Q:1/4=114][Q:1/4=110] A,2[Q:1/4=106] G,2[Q:1/4=102] D,3[Q:1/4=100] C, | %80
w: lag- ging all the|
"^a tempo"[Q:1/4=120][Q:1/4=114] B,,4 z4 | z8 | z14 | z12 | z4 z2!f! F,2 | %85
w: way.||||"Now|
[Q:1/4=120] B,>A, B,C B,A,G,F, | G,F,G,A, F,3 E, | D,2 D,2 D,2 E,2 | %88
w: up, my lads", the Cap- tain crìed, "for|sure the case were hard If|long- est out were|
[Q:1/4=120] F,2 (G,F,) E,D, (C,D,) | B,,4 z2 z F, | B,A,B,C B,A,G,F, | G,F,G,A, F,2 (A,B,) | %92
w: first to * fall * be\- *|hind; A-|loft, a- loft with stud- ding sails, and|lash them on the yard, For *|
 C2 C,2 D,2 B,2 | A,3 F, (B,A,) (G,A,) | F,4 z2!p! F,2 | G,G,A,=B, CB,CG, | G,G,A,=B, C3 A, | %97
w: night and day the|trades are driv\- * ìng *|blind. So|all day long and all day long be-|hind the fleet we crept, And|
 D2 C2 B,2 A,2 | G,2 F,2 E,2 D,2 | C,4 z2 G,2 | G,G,A,=B, CB,"^cresc."CG, | A,A,=B,^C D2!f! =C_B, | %102
w: how we fret- ted|none but Nel- son|guessed; But|ev- 'ry night the "Old Su- perb" she|sail'd when o- thers slept, Till we|
 E2 D2 C3 D | G,3 A, B,2 C2- | F,4 z4 | z2!f![Q:1/4=80]!<(! !fermata!C4!<)![Q:1/4=120] F,2 | %106
w: ran the French to|earth with all the|rest.|O 'twas|
 B,,2 D,2 F,3 F, | G,A, B,4 (B,C) | D2 B,2 G,3 F, | E,6 G,2 | F,A, C4- CF, | D2 B,2 G,3 =E, | %112
w: West- ward ho! for|Tri- ni- dad, and *|East\-~. ward ho! for|Spain, and|"Ship a- hoy!" * a|hun- dred times a|
 F,4 z4 | z8 | B,3 C D3 C | B,2 F,2 z2 F,2 | B,3 C D3 C | B,6 CD | %118
w: day;||Round the world if|need be, and|round the world a-|gain, With a|
 (E2"^rall." D2)[Q:1/4=117] C2[Q:1/4=113] D2 | %119
w: lame * duck, a|
[Q:1/4=109] (E2[Q:1/4=105] D2)[Q:1/4=101] C2-[Q:1/4=100] D2 | E2 D2 C2 B,2 | %121
w: lame * duck a-|lag- ging, lag- ging,|
[Q:1/4=100] A,2 G,2 !fermata!D7/2 C/ |"^presto"[Q:1/4=140] B,8- | B,8 |[Q:1/4=100] B,2 z2 z4 | z8 | %126
w: lag- ging all the|way!||||
 z8 | z8 |] x8 | x8 | x8 |] %131
w: |||||
V:2
!f! Bc | (dB).F.c (BG).F.c | (dB).F.c (BG).F.c |[K:bass]!p! (DB,).F,.C (B,G,).F,.C x4 | %4
 (DB,).F,.C (B,G,).F,.C | x8 |[M:4/4] [F,B,F] z [F,B,F] z [F,EF]4 | %7
[K:treble] [G,B,E] z [G,EG] z [Ec]3 [A,E] | .D.C.B,.D .A,.D.G,.E | .F,.B,.D.F .G z .[A,EA] z | %10
 [B,DB]4 z4 | [B,D] z [B,=E] z [CF]4 | [B,DG] z [G,^C=E] z (F2 ED) | .C.F.c.C DFdD | %14
 z [A,FA] z [A,FA] z [B,F] z [B,=E] |"^stacc."!<(! .A,.C.B,.D .C.!courtesy!_E.D.F!<)! | %16
!p! [G,G] z [G,F] z [G,E]4 | [G,F] z [G,D] z [G,G]2 z [CEA] | z [DFB] z [C^FA] z [B,DG] z [D=FA] | %19
 z [B,EG] [_A,DF]2 z [CE] [F,=B,D]2 |[I:staff +1] (CE,).F,.G, !tenuto!C,2[I:staff -1] z2 | %21
 [G,CE] z [G,D] z [G,CG]4 | [A,DF] z [A,=E] z [A,DA]2 (_AF) | .C.E.D.F"^cresc." .E.G.F.A | %24
 (Bc).B.A .G2 .[G,B,=E]2 | .[A,F]2!f! .[cc']2- .[Ff]2 .c2 | .F2 .C2 .F,2 z2 | %27
!p! [F,B,]2 [F,D]2 [CF]4 | [G,B,G]2 [F,F].E .D.E.D.C | .B,2 .[C^FB]2 [B,DG]3 .[_A,D=F] | %30
 .[G,CE]2 (GF .E2) .[DG]2 | .[CF]2 .G.F .E.D.C.E | DF-Bd B,=EGB |!<(! A,B,CD !courtesy!_EFGB!<)! | %34
!>(! AcBG FAGE!>)! | (BF).G.c (dA).G.c | (BF).G.c (dA).G.c | (BF).G.c (dA).G.c | (BF).E._A (GD)CF | %39
 [B,E]2"^rall." [F_Ad]2 [EGc]2 [DF!courtesy!_B]2 | [CEA]2 [B,DG]2 [G,B,D]2[I:staff +1] [E,A,]2 | %41
 [D,B,]2!f!"^a tempo"[I:staff -1] Bc (dB).F.c | (BG).F.c (dB)Fc | (BG)Fc[K:bass]!p! (DB,)F,C | %44
 (B,G,).F,.C (B,G,).F,.C | (B,G,).F,.C (B,G,).F,.C |!pp! [F,B,F] z [F,B,F] z [F,EF]4 | %47
 [G,B,E] z[K:treble] .[B,EG] z [Ec]3 [A,E] | .D.C.B,.D .A,.D.G,.E | .F,.B,.D.F .G z .[A,EA] z | %50
 [B,DB]4 z4 |!p! (B6 A2) | [B,DG] z [^CG] z (F2 =ED) | .C.F.A.c .D.F.G.d | A,CFA B,D=EB, | %55
!<(! A,CB,D C!courtesy!_EDF!<)! |!p! G z [G,F] z [G,E]4 | [G,F] z [G,D] z [G,G]2 z [CEA] | %58
 z [DFB] z [C^FA] z [B,DG] z [D=FA] | z .[B,EG] !tenuto![_A,DF]2 z .[CE] !tenuto![=B,D]2 | %60
[I:staff +1] (CE,).F,.G, !tenuto!C,2[I:staff -1] z2 | [G,CE] z [G,D] z"^cresc." [G,CG]4 | %62
 [A,DF] z [A,=E] z [A,DA] z (FD) | CEDF EGFA | (Bc).B.A .G2 .[=EB=e]2 | %65
 .[FAf]2!f! .[cc']2 .[Ff]2 .c2 | .F2 .C2 .F,2 z2 |!p! .[F,B,]2 .[B,D]2 [CF]4 | %68
 ([G,B,G]2 [F,F]).E .D.E.D.C | .B,2 .[C^FB]2 [B,DG]3 .[_A,D=F] | .[G,CE]2 (GF .E2) .[DG]2 | %71
 .[CF]2 .G.F .E.D.C.E | DFBd B,=EGB |!<(! A,B,CD !courtesy!_EFG!<)!B |!>(! AcBG FAG!>)!E | %75
 (BF).G.c (dA).G.c | (BF).G.c (dA).G.c | (BF).G.c (dA).G.c | (BF).E._A (GD).C.F | %79
 [B,E]2 [F_Ad]2 [EGc]2 [DF_B]2 | [CEA]2 [B,DG]2[K:bass] [G,B,D]2 [E,A,]2 | %81
"^a tempo" [D,B,]2[K:treble]!f! Bc (dB)Fc | (BG).F.c (dB).F.c x6 | ((.BG)).F.c!p! (DB,).F,.C x4 | %84
 (B,G,).F,.C (B,G,).F,.C | (B,G,).F,.C F z z2 | x8 | x8 | [B,FB] z [G,B,=E] z [F,CF]4 | %89
 [G,B,G] z [E,A,E] z (!>!D3 C) | .D2 .[CD]2 .[B,D]2 .[G,B,E]2 | %91
 .[F,B,F]2 z [F,B,] [G,B,G] z[I:staff +1] [E,A,][I:staff -1] z | B,4- B, z[I:staff +1] .[F,A,]2 | %93
[I:staff -1] .[F,B,] z [B,C] z [CF] z [CFc] z | [DG] z [G=e] z [FA] z =ED | (CFAc) (DFGd) | %96
!<(! (FAdc) (GBf!<)!=e) |!>(! (fcAF C!>)!A,F,)F | z!p! [G,G] z [G,F] z [G,E] z2 | %99
 z [G,G] z [G,F] z [G,E] z [CEA] | z [B,DB] z [C^FA] z [B,DG] z [B,DA] | %101
 z [B,EG] [_A,CF]2 z [CE] [=B,D]2 |[K:bass] .C.E,.F,.G, .C,E,.G,.C | %103
[K:treble] ([CE]G,)(DG,) (GECG,) |"^cresc." ([DF]A,=EA, [DA]A,[D_A]_A,) | %105
 .C.E.D.F EGF!courtesy!=A | (Bc).B.A .G2 .[GB=e]2 | .[FAf]2!f! [cc']2 .[Ff]2 .c2 | %108
 F2 C2[I:staff +1] F,[I:staff -1] !fermata!z z2 | %109
!f! .[F,B,F]2 .[F,B,D]2 .[F,C]2[I:staff +1] .[F,A,]2 |[I:staff -1] ([G,G]2 [F,F]).E .D.E.D.C | %111
 .B,2 .[^F,C^F]2 .[G,DG]2 [DGd]2 | .[EGe]2 .g.f .e.dc.B | A2 .F.A !>!c2 .[FAcf]2 | %114
 z2 .[DFBd]2 z2 [=EGB=e]2 | [FAcf]2 CD !courtesy!_EFGB | AcBd cFAc | fBFc fdFc | fBFc fdFc | %119
 (fB)Fc (fd)Fc | (fB)df b2 z2 | z"^rall." [G,EG] [G,DG]2 z [G,CG] [G,DG]2 | %122
 z [G,EG] [G,DG]2 z [G,CG] [G,DG]2 | [EGce]2 [DFBd]2 [CEGc]2 [B,DGB]2 | %124
 [A,CFA]2 [G,DG]2 [DGBd]2 [A,EA] !fermata!z |"^presto" [B,DFB]2 Bc (dB)Fc | (BG)Fc (dB)Fc | %127
 (BG)Fc (dB)Fc |] (dB)Fc ((dB-))Fc | .f2 z2 .[A,EF]2 z2 | .[B,DFB]2 z2 !fermata!z4 |] %131
V:3
 z2 |!f! .[D,B,]2 .[F,C]2 .[G,B,]2 .[F,C]2 | .[D,B,]2 .[F,C]2 .[G,B,]2 .[F,C]2 | %3
!p! .[D,,B,,]2 .[F,,C,]2 .[G,,B,,]2 .[F,,C,]2 x4 | .[D,,B,,]2 .[F,,C,]2 .[G,,B,,]2 .[F,,C,]2 | x8 | %6
[M:4/4] D,, z D, z C,4 | B,,, z B,, z [A,,F,]2 F,,2 | %8
"^staccato" .B,,.A,,.G,,.B,, .F,,.B,,.E,,.B,, |!p! .D,,.F,,.B,,.D, .E, z .F,, z | x8 | x8 | %12
 x4 F,4 | .A,,2 .[F,A,]2 .B,,2 .[F,G,]2 | .C,2 .D,2 .G,,2 .C,2 | %15
!<(! .F,,.A,,.G,,.B,, .A,,.C,.B,,.D,!<)! |!p! E, z [D,F,] z [C,E,]4 | D, z F, z E,2 (C,,2 | %18
 B,,,2 D,,2 G,,2 B,,2 | E,2 F,2 G,2 G,,2) | (C,E,,).F,,.G,, !tenuto!C,,2 z2 | G,, z F,, z E,,4 | %22
 A,, z G,, z F,,2 B,,2 | .C,.E,.D,.F, .E,.G,.F,.A, | (B,C).B,.A, .G,2 .C,2 | %25
 .F,,2!f! .C2 .F,2 .[C,C]2 | .[F,,F,]2 .[C,,C,]2 .[F,,,F,,]2 z2 |!p! .D,2 .B,,2 (F,2 A,2) | %28
 (E,,2 D,,).C,, .B,,,.C,,.B,,,.A,,, | .G,,,2 .[A,,,A,,]2 .[B,,,B,,]2 .[=B,,,=B,,]2 | %30
 [C,,C,]2 (E,D, .C,2) [B,,D,]2 | .[A,,F,]2 .E,.D, .C,.B,,.A,,.C, | .B,,2 (G,,2 C,2) .C,,2 | %33
!<(! F,,G,,A,,B,, C,D,E,G,!<)! |!>(! F,A,G,E, D,F,E,C,!>)! | D,B,E,B, F,B,E,B, | %36
 D,B,E,B, F,B,E,B, | D,B,E,B, F,B,E,B, | D,2 C,2 B,,2 _A,,2 | G,,2 =B,,,2 C,,2 D,,2 | %40
 ^F,,2 G,,2 E,,2 =F,,2 | B,,,2 z2!f! .[D,B,]2 .[F,C]2 | .[G,B,]2 .[F,C]2 .[D,B,]2 .[F,C]2 | %43
 .[G,B,]2 .[F,C]2!p! [D,,B,,]2 [F,,C,]2 | [G,,B,,]2 [F,,C,]2 [G,,B,,]2 [F,,C,]2 | %45
 [G,,B,,]2 [F,,C,]2 [G,,B,,]2 [F,,C,]2 |!pp! D,, z D, z C,4 | B,,, z B,, z ([A,,F,]2 F,,2) | %48
 .B,,.A,,.G,,.B,, .F,,.B,,.E,,.B,, | .D,,.F,,.B,,.D, .E, z .F,, z | %50
 (E,,D,,).C,,.D,, !tenuto!B,,,2 z2 | ([G,B,]4 [F,C]4) | =E, z A, z F,4 | %53
 .A,,2 .[F,A,]2 .B,,2 .[F,G,]2 | .C,2 .D,2 .G,,2 .C,2 |!<(! F,,A,,G,,B,, A,,C,B,,D,!<)! | %56
!p! E, z D, z C,4 | D, z F, z E,2 (C,,2 | B,,,2 D,,2 G,,2 B,,2 | E,2 .F,2 G,2 [G,,F,]2) | %60
 (C,E,,).F,,.G,, !tenuto!C,,2 z2 | G,, z F,, z"^cresc." E,,4 | A,, z G,, z F,, z B,,2 | %63
 C,E,D,F, E,G,F,A, | (B,C).B,.A, .G,2 .C,2 | .[F,,F,]2!f! .C2 .F,2 .[C,C]2 | %66
 .[F,,F,]2 .[C,,C,]2 .[F,,,F,,]2 z2 |!p! .D,2 .B,,2 (F,2- A,2) | %68
 (E,,2 D,,).C,, .B,,,.C,,.B,,,.A,,, | .G,,,2 .[A,,,A,,]2 .[B,,,B,,]2 .[=B,,,=B,,]2 | %70
 [C,,C,]2 (E,D, .C,2) .[B,,D,]2 | .[A,,F,]2 .E,.D, .C,.B,,.A,,.C, | .B,,2 (G,,2 C,2) C,,2 | %73
!<(! F,,G,,A,,B,, C,D,E,!<)!G, |!>(! F,A,G,E, D,F,E,!>)!C, | .D,.B,.E,.B, .F,.B,.E,.B, | %76
 .D,.B,.E,.B, .F,.B,.E,.B, | .D,.B,.E,.B, .F,.B,.E,.B, | D,2 C,2 B,,2 _A,,2 | %79
 G,,2"^rall." =B,,,2 C,,2 D,,2 | ^F,,2 G,,2 E,,2 =F,,2 | B,,,2 z2!f! .[D,B,]2 .[F,C]2 | %82
 .[G,B,]2 .[F,C]2 .[D,B,]2 .[F,C]2 x6 | .[G,B,]2 .[F,C]2!p! [D,,B,,]2 [F,,C,]2 x4 | %84
 [G,,B,,]2 [F,,C,]2 [G,,B,,]2 [F,,C,]2 | [G,,B,,]2 [F,,C,]2 z4 | x8 | x8 |!p! [D,F,] z G,, z F,,4 | %89
 E,, z C,, z [F,B,]2- [F,A,]2 | B,,D,A,,D, G,,D,E,,E, | .D,,2 z D,, E,, z F,, z | %92
 F,2 .E,.F, D, x3 | [D,,B,,] z .[G,,=E,] z [F,,F,] z [A,,A,] z | %94
 [B,,B,] z [^C,A,] z [D,A,] z (=C,B,,) | (A,,C,F,A,) (B,,D,G,B,) | (C,F,A,C) (C,G,B,C) | %97
 [F,A,]2 z2 z4 | E,, z D,, z C,, z z2 | E,, z D,, z C,, z (^F,,,2 | G,,,2 D,,2 G,,2 B,,2 | %101
 E,2 F,2 G,2 [G,,F,]2) | .C,.E,,.F,,.G,, .C,,.E,,.G,,.C, | (G,,2 F,,2 E,,2) z2 | %104
"^cresc." (A,,2 G,,2 F,,2 B,,2) | .C,.E,.D,.F, E,G,F,!courtesy!=A, | (B,C).B,.A, .G,2 .C,2 | %107
 .[F,,F,]2!f! .C2 .F,2 .[C,C]2 | .[F,,F,]2 [C,,C,]2 [F,,,F,,] !fermata!z z2 | %109
!f! .D,2 .B,,2 .A,,2 .F,,2 | (E,,2 D,,).C,, .B,,,.C,,.B,,,.A,,, | G,,,2 .A,,,2 .B,,,2 .=B,,,2 | %112
 .C,,2 .[E,E].[D,D] .[C,C].[B,,B,].[A,,A,].[G,,G,] | .[F,,F,]2 .F,.A, !>!C2 .[F,CE]2 | %114
 z2 .[B,,B,]2 z2 [C,C]2 | F,,G,,A,,B,, C,D,E,G, | F,A,G,B, A,CA,E, | D,F,B,E, F,B,DE, | %118
 D,F,B,E, F,B,DE, | D,_A,B,E, F,A,DE, | D,2 [_A,B,F]4 z2 | (E,,2 G,,2) (E,,2 G,,2) | %122
 (E,,2 G,,2) (E,,2 G,,2) | C,,2 D,,2 E,,2 G,,2 | A,,2 B,,2 [E,,E,]2 [F,,F,] !fermata!z | %125
 [B,,,B,,]2 z2 .[D,B,]2 .[F,C]2 | .[G,B,]2 .[F,C]2 .[D,B,]2 .[F,C]2 | %127
 .[G,B,]2 .[F,C]2 .[D,B,]2 .[F,C]2 |] [D,B,]2 [F,C]2 [D,B,]2 [F,C]2 | .[D,B,]2 z2 .[F,,F,]2 z2 | %130
 .[B,,,B,,]2 z2 !fermata!z4 |] %131
V:4
 x2 | x8 | x8 | x12 | x8 | x8 |[M:4/4] x8 | x8 | x8 | x8 | (E,,D,,).C,,.D,, !tenuto!B,,,2 z2 | %11
 [B,,F,] z [G,,G,] z [F,,F,]4 | =E,, z A,, z (D,2 !courtesy!=C,B,,) | x8 | x8 | x8 | x8 | x8 | x8 | %19
 x8 | x8 | x8 | x8 | x8 | x8 | x8 | x4 x4 | x4 .A,,2 .F,,2 | x4 x4 | x8 | x8 | x8 | x8 | x8 | x8 | %35
 x8 | x8 | x8 | x8 | x8 | x8 | x8 | x8 | x8 | x8 | x8 | x8 | x8 | x8 | x8 | x8 | x4 x4 | %52
 x z x z (D,2- !courtesy!=C,B,,) | x8 | x8 | x8 | x8 | x8 | x8 | x8 | x8 | x8 | x8 | x8 | x8 | x8 | %66
 x8 | x4 .A,,2 .F,,2 | x4 x4 | x4 x4 | x8 | x8 | x8 | x8 | x8 | x8 | x8 | x8 | x8 | x8 | x8 | x8 | %82
 x14 | x12 | x8 | x8 | x8 | x8 | x4 x4 | x z x2 (!>!D,,2 F,,2) | x4 x4 | x4 x4 | %92
 (E,,D,,)C,,D,, B,,, z .[E,,C,]2 | x8 | x8 | x8 | x8 | x8 | x8 | x8 | x8 | x8 | x8 | x8 | x8 | x8 | %106
 x8 | x8 | x8 | x8 | x8 | x8 | x8 | x8 | x8 | x8 | x8 | x8 | x8 | x8 | x8 | x8 | x8 | x8 | x8 | %125
 x8 | x8 | x8 |] x8 | x8 | x8 |] %131
V:5
 x2 | x8 | x8 |[K:bass] x12 | x8 | x8 |[M:4/4] x8 |[K:treble] x8 | x8 | x8 | x8 | x8 | x8 | x8 | %14
 x8 | x8 | x8 | x8 | x8 | x8 | x8 | x4 x4 | x z x z x2 [_A,D]2 | x8 | x8 | x8 | x8 | x8 | x8 | x8 | %30
 x8 | x8 | x8 | x8 | x8 | x8 | x8 | x8 | x8 | x8 | x8 | x8 | x8 | x4[K:bass] x4 | x8 | x8 | x8 | %47
 x2[K:treble] x6 | x8 | x8 | x8 | D2 =E2 F4 | x4 x4 | x8 | x8 | x8 | x8 | x8 | x8 | x8 | x8 | %61
 x4 x4 | x z x z x z _A,2 | x8 | x8 | x8 | x8 | x8 | x8 | x8 | x8 | x8 | x8 | x8 | x8 | x8 | x8 | %77
 x8 | x8 | x8 | x4[K:bass] x4 | x2[K:treble] x6 | x14 | x12 | x8 | x8 | x8 | x8 | x8 | x8 | x8 | %91
 x8 | x8 | x8 | x8 | x8 | x8 | x8 | x8 | x8 | x8 | x8 |[K:bass] x8 |[K:treble] x8 | x8 | x8 | x8 | %107
 x8 | x8 | x8 | x8 | x8 | x8 | x8 | x8 | x8 | x8 | x8 | x8 | x8 | x8 | x8 | x8 | x8 | x8 | x8 | %126
 x8 | x8 |] x8 | x8 | x8 |] %131

